X:10
T:Saltarello
Z:Transcrit et/ou corrigé par B@D - 2006-09-22
Z:Pour toute observation mailto:-@-
M:2/4
L:1/16
K:C
f2g2 | aga_b agab | a4 f2g2 | a2_ba gfef | d2^c2 B2^c2 |
d^cBc d2B2 | ^c4 d^cBc | d2e2 gfef | d2=c2 gfef | g2a2 c'_bag |1
a4 gfef | d^cB^c  d2A2 | d4 :|2 a4 gfed | d=cdB c2G2 | c4 |:
f2g2 | a2_ba gfef | d2^c2 B2^c2 | d^cB^c d2B2 | ^c4 d^cB^c | d2e2 gfef | (d2c2) gfef |
(g2a2) c'_bag |1 a4 gfef | dcBc d2A2 | d4 :|2 a4 gfed | dcdB c2G2 | c4 |:
fedc | f2ga c'_bag | a4 f2g2 | a2_ba gfef | d2^c2 B2^c2 |
d^cB^c d2B2 | ^c4 d^cB^c | d2e2 gfef | d2c2 gfef | g2a2 c'_baf |1
a4 gfef | d^cB^c d2A2 | d4 :|2 a2 gfed | dcdB c2G2 | c4 |:
c'bab | c'2g2 =fede | f2ga c'_bag | a4 f2g2 | a2_ba gfef | d2^c2 B2^c2 |
d^cB^c d2B2 | ^c4 d^cB^c | d2e2 gfMef | d2c2 gfef | g2a2 c'_bag |1
a4 gfef | dcBc d2A2 | d4 :|2 a4 gfed | dcdB c2G2 | c4 |:
b2c'2 | d'2c'2 baga | c'2g2 fede | f2ga c'_bag |
a4 f2g2 | a2_ba gfef | d2^c2 B2^c2 | d^cB^c d2B2 | ^c4 d^cB^c |
d2e2 gfef | d2c2 gfef | g2a2 c'_bag |1
a4 gfef | d^cB^c d2A2 | d4 :|2 a4 gfed | dcBc c2G2 c4 |:
b2c'2 | d'c'bc' d'2a2 | d'4 b2c'2 | d'2c'2 c'bag | c'2g2 fede |
f2ga c'_bag | a4 f2g2 | a2_ba gfef | d2^c2 B2^c2 |
d^cB^c d2B2 | c4 d^cB^c | d2e2 gfef | d2c2 gfef | g2a2 c'_bag |1
a4 gfef | d^cB^c d2A2 | d4 :|2 a4 gfed | dcdB c2G2 | c4 |]

%%begintext
Galoubet en Fa
%%endtext


%%header "$P0	 $IR 	$P1"
%%footer $D - Éditions Galouvielle - 2009 - À usage librement privé dans le cadre familial

